X: 33602
T: Rakes Of Westmeath, The
R: slip jig
M: 9/8
K: Gmajor
~d2g BGB {AB}AcA|~d2 g BGB "roll"~c3|.gdc BGB {AB}AcA|"roll"~f3 A2 B cBA:|
|:"roll"~g3 bag afd|"roll"~g3 bag c'ba|"roll"~g3 bag afd|"roll"~f3 A2 B cBA:|
|:def gdc B{GB}GB|def gdB "roll"~c3|def gdc BGB|"roll"~f3 A2 B cBA:|

